X: 17979
T: Hugh McKenna's
R: reel
M: 4/4
K: Eminor
BA|:G2E2 E2B,2|EB,EF G2AG|F2D2 A2D2|FDFG A2BA|
G2E2 E2B,2|EB,EF G2GA|B2e2 BAGF|1 G2E2 E2BA:|2 G2E2 E2gf||
|:e2B2 B2^d2|eBef g2ag|f2d2 d2A2|FAde f2gf|
e2B2 B2^d2|eBef g2fe|d2Bd B2AF|1 E4 E2gf:|2 E4 E2BA||

